X:1
T:Title
%%score { ( 1 3 ) | ( 2 4 ) }
L:1/8
M:6/8
K:Ab
V:1 treble nm="Grand Piano"
V:3 treble 
V:2 bass 
V:4 bass 
V:1
 z3 z2[Q:1/4=90] [CE] | [CE][CE][CE] [CE][DF][DG] | [CA][CEA][CEA] [CEA]2 [CEA] | ccc cBA | %4
 cBB B2 E | [CE][CE][CE] [CE][DF][DG] | [CA][CEA][CEA] [CEA]2 [CEA] | ccc cBA | BAG [A,CA]3 | %9
[M:1/8] [CE] |[M:3/4] [Ec]4 [DB][CA] | A,A, A, [CEA]2 [Ec] | [EB]4 z2 | [Ec]6 | [Ec]4 z2 | %15
 [FA]4 z2 | E4 z2 |[M:5/8] A-[CA-][DA-] [CA]2 |] %18
V:2
 z3 z2 [A,,A,] | [A,,A,][A,,A,][A,,A,] [A,,A,][A,,A,][A,,A,] | [A,,A,]A,,A,, A,,2 A,, | %3
 [A,E][A,E][A,E] [A,E][A,D][A,C] | [E,A,E][E,G,E][E,G,E] [E,G,E]2 [E,G,D] | %5
 [A,,A,][A,,A,][A,,A,] [A,,A,][A,,A,][A,,A,] | [A,,A,]A,,A,, A,,2 A,, | %7
 [A,E][A,E][A,E] [A,E][A,D][A,C] | [E,G,D][E,A,C][E,B,D] A,,3 |[M:1/8] A, |[M:3/4] A,A, A,A, A,A, | %11
 A,,A,, A,, A,,2 [A,,A,] | [E,G,]E, E,E, [E,A,E][E,B,E] | [A,,A,]A,, A,, A,,2 [A,,A,] | %14
 [A,,A,]A,, A,,A,, [B,,G,][C,A,] | [D,A,]D, D, [D,A,D]2 [D,A,D] | C4 z2 | %17
[M:5/8] [A,,A,][A,,E,][A,,F,] [A,,E,]2 |] %18
V:3
 x6 | x6 | x6 | x6 | x6 | x6 | x6 | x6 | x6 |[M:1/8] x |[M:3/4] x6 | [CE]4 z2 | z G, G,G, cd | %13
 z A, A, A,2 [CE] | z A, A,A, [EB][EA] | z D D F2 F | z A, A,D FG |[M:5/8] C z z z2 |] %18
V:4
 x6 | x6 | x6 | x6 | x6 | x6 | x6 | x6 | x6 |[M:1/8] x |[M:3/4] x6 | x6 | x6 | x6 | x6 | x6 | %16
 [E,A,]E, E,[E,G,] [E,A,D][E,B,D] |[M:5/8] x5 |] %18

